X: 106
T:Road to Rio
R:reel
M:4/4
L:1/8
Q:1/2=112
K:G
GE| DEGA BABd|e~g3 agef|gede gedB|AcBA GEDE|
DEGA ~B3d|e~g3 agef|gede gedB|AcBA G2:|
Bc|d~g3 a~g3|bgag edBd|eBBA GABd|e2dB AGEG|
DEGA BABd|e~g3 agef|gbaf gedB|AcBA G2:|
